X: 1
T: Boys of Ballymote, The
C: Trad.
M: 6/8
R: Jig
L: 1/8
S: Robbie Mackenzie
K: D
|:d2 A BAB|def a2 f|aba f2 e|dBB BAB|
d2 A BAB|def a2 f|aba f2 e|edd d2 A:|
|:faa faa|afe f3|aba f2 e|dBB BAB|
faa faa|afe f3|aba f2 e|edd d2 A:|
